X: 35390
T: Ross'
R: reel
M: 4/4
K: Dmajor
|:F3B AFED|ABDE F2ED|E3F GDEF|GEFD EGFE|
F3B AFED|ABDE F2ED|A3B dABd|1 DABD ABDA:|2 DABD AB D2||
|:A3B dA A2|dAde fA A2|e3f gB B2|gBfB eBdB|
A3B dA A2|dAdf a4|b3a df f2|egfe dB A2|
ABdf dA A2|dAde fA A2|e3f gB B2|gBfB e3f|
d2dc dBAf|(3def ad B2dB|A3B dABd|ABde d4||

